X:335
%%etbk:tnset id:101,pos:1,rep:3x,ant:
%%etbk:wsite http://www.thesession.org/tunes/display/264
%%etbk:pldat 2016-06-23T19:24,2016-06-21T15:46,2016-05-05T14:25,2016-05-03T17:13,2016-03-11T16:41,2016-03-09T16:16,2016-03-08T16:25,2016-02-27T15:26,2015-11-04T16:48,2015-10-28T16:23,2015-10-26T18:03,2015-10-21T16:51,2015-10-07T16:00,2015-06-26T17:30,2015-03-13T18:51,2015-03-10T17:08,2015-03-03T18:45,2015-02-10T17:31,2014-11-06T18:42,2014-11-04T17:13,2014-11-02T15:24,2014-10-29T15:59,2014-10-24T18:30,2014-08-20T19:09,2014-06-24T18:53,2014-03-06T18:28,2014-03-03T19:03,2014-02-24T18:19,2013-10-30T17:11,2013-10-29T16:27,2013-10-27T14:58,2013-10-16T16:33,2013-10-13T15:43
T: Lanigan's Ball
Z: Piano Box Version by Martin Fleischmann
H: Created 2013-02-19 /  Last Modified 2013-02-19
M: 6/8
L: 1/8
R: jig
K: Emin
|: "em"!1!E!2!E!1!E !3!G2!4!A | !2!BBA B^cd | "D"!1!D2D !2!F2!1!G | !2!A!5!d!3!B !1!A!3!F!1!D |
"em"!1!EFE !3!G2!4!A | !2!BBA B^cd | !5!ed!2!B "bm"!3!cBA | "em"!5!B!3!G!1!E E3:|
|: "em"!2!e2f !4!gfe | "D"!3!f!5!ag !3!fed | "em"!2!e2f !4!g!3!g!4!g | "bm"!3!f!1!d!2!B !1!B2B |
"em"!2!e2f !4!gfe | "D"!3!f!5!ag !3!fe!1!d |"em" !5!edB "bm"!3!cBA | "em"!5!B!3!G!1!E E3 :|


